X: 689
P: Longways for as many as will
M: C
L: 1/8
K: C
V: 1
(ed)(cA) (cA)(GE) | (FE)(DC) A3c | G3A (GA)(cE) | TG3A c2 :|
|: GA |\
c2e2 e2(de) | (fe)(dc) A2(GA) | c3d (ed)(ec) | (f3g/)a/ g3a |\
(ga)(gf) e2(de) | (fe)(dc) A3g | (e/f/g) G2 (GA)(GE) | G4 c2 :|
V: 2 clef=bass middle=d
z2 |\
cdef e2c2 | d3e defd | e2f2 e2A2 | G2gf e2ed |\
c2a2 f2c2 | d3e fgaf | g4 G4 | c4 c2 :|
|: z2 |\
c4 c'2b2 | a2f2 d2e2 | A2B2 c4 | d2e2 e2f2 |\
e2d2 c2Bc |  d3e fedg | c2e2 g2G2 | c4 c2 :|

